X: 33284
T: Push About The Jorum
R: reel
M: 4/4
K: Dmajor
|:AD (3FED =CDEG|FDAD BcdB|AD (3FED =CDEG|1 FGEF D2 dB:|2 FGEF D2 ed||
K:Amaj
(3cBA eA fAeA|(3fga ec dcBd|(3cBA eA fAeA|(3fga ec dfed|
(3cBA eA fAeA|(3fga ec dcBA|df~f2 cecA|Bcde fdBd||

